public/new/vuesaxboldarrowup1.svg

<svg fill="none" height="47" viewBox="0 0 47 47" width="47" xmlns="http://www.w3.org/2000/svg" xmlns:xlink="http://www.w3.org/1999/xlink"><linearGradient id="a" gradientUnits="userSpaceOnUse" x1="23.4906" x2="23.4906" y1="3.9165" y2="43.0832"><stop offset="0" stop-color="#34c796"/><stop offset="1" stop-color="#0b7a55"/></linearGradient><path d="m31.7057 3.9165h-16.4108c-7.12832 0-11.37791 4.24959-11.37791 11.3779v16.3913c0 7.1479 4.24959 11.3975 11.37791 11.3975h16.3913c7.1283 0 11.3779-4.2496 11.3779-11.3779v-16.4109c.0196-7.12831-4.23-11.3779-11.3584-11.3779zm1.2338 17.2725c-.5679.5679-1.5079.5679-2.0758 0l-5.8946-5.8946v19.9554c0 .803-.6659 1.4688-1.4688 1.4688s-1.4687-.6658-1.4687-1.4688v-19.9554l-5.8946 5.8946c-.5679.5679-1.5079.5679-2.0758 0-.2938-.2937-.4309-.6658-.4309-1.0379s.1567-.7638.4309-1.0379l8.4012-8.4013c.2742-.2741.6463-.4308 1.0379-.4308.3917 0 .7638.1567 1.0379.4308l8.4013 8.4013c.5679.5679.5679 1.4883 0 2.0758z" fill="url(#a)"/></svg>

<svg width="47" height="47" viewBox="0 0 47 47" fill="none" xmlns="http://www.w3.org/2000/svg">
<path d="M31.7057 3.9165H15.2949C8.16658 3.9165 3.91699 8.16609 3.91699 15.2944V31.6857C3.91699 38.8336 8.16658 43.0832 15.2949 43.0832H31.6862C38.8145 43.0832 43.0641 38.8336 43.0641 31.7053V15.2944C43.0837 8.16609 38.8341 3.9165 31.7057 3.9165ZM32.9395 21.189C32.3716 21.7569 31.4316 21.7569 30.8637 21.189L24.9691 15.2944V35.2498C24.9691 36.0528 24.3032 36.7186 23.5003 36.7186C22.6974 36.7186 22.0316 36.0528 22.0316 35.2498V15.2944L16.137 21.189C15.5691 21.7569 14.6291 21.7569 14.0612 21.189C13.7674 20.8953 13.6303 20.5232 13.6303 20.1511C13.6303 19.779 13.787 19.3873 14.0612 19.1132L22.4624 10.7119C22.7366 10.4378 23.1087 10.2811 23.5003 10.2811C23.892 10.2811 24.2641 10.4378 24.5382 10.7119L32.9395 19.1132C33.5074 19.6811 33.5074 20.6015 32.9395 21.189Z" fill="url(#paint0_linear_28_729)"/>
<defs>
<linearGradient id="paint0_linear_28_729" x1="23.4906" y1="3.9165" x2="23.4906" y2="43.0832" gradientUnits="userSpaceOnUse">
<stop stop-color="#34C796"/>
<stop offset="1" stop-color="#0B7A55"/>
</linearGradient>
</defs>
</svg>
